!!!COM: Anon.
!!!OTL: You are Foolish
!!!ODT: <1918//
!!!MPN: Istanuwetsas [One Eye, Harry Eaton]
!!!MLC: Fort Berthold Reservation, North Dakota, United States of America
!! Song was recorded during either the summer of 1912, 1915, or 1918.
!!!AGN: monody
!!!AST: Mandan and Hidatsa War Songs
!!!AMT: irregular
!!!RWG: Transcribed pitches, durations, and meters are only approximate.
!! Drum Tempo: MM108
!! Drum-rhythm (approximate): (12^ 12r 12) (12^ 12r 12) (12^ 12r 12) (12^ 12 12)
**kern
*ICvox
*Imale
*clefF4
*k[b-e-a-d-g-]
*M2/4
*MM116
=1-
8.f
16f
4f
=2
16f
8.d-
4d-
=3
8.d-
16d-
4d-
=4
16d-
! added dot:
8.A-
4G-
=5
8.d-
16d-
4d-
=6
16d-
8.c
4A-
=7
8.A-
16A-
4A-
=8
16A-
8.F
4F
=9
8.F
16F
4F
=10
16F
8.F
4D-
=11
8.F
16F
4F
=12
16F
8.F
4D-
=13
8.D-
16d-
4A-
==
*-
!!!CNT: Hidatsa
!!!TXO: Hidatsa
!!!OCY: United States
!!!OCL: Frances Densmore
!!!YOR: Frances Densmore, "Mandan and Hidatsa Music",
!!!YOR: Bulletin 80, page 169, No. 101
!!!PPR: Smithsonian Institution, Bureau of American Ethnology
!!!PPR: Government Printing Office
!!!PDT: 1923
!!!PPP: Washington, DC, United States of America
!!!YEC: Electronic Copyright 2000 David Huron
!!!YER: August 2000
!!!YEN: United States of America
!!!ENC: David Huron
!!!RDT: August 18, 2000
!!!EEV: Release 1.0
!!!AIN: tom, vox
